app/img/elements/arrow-down-blue.svg

<svg width="10" height="6" viewBox="0 0 10 6" fill="none" xmlns="http://www.w3.org/2000/svg">
<path d="M0.196722 0.67341C0.0655737 0.789017 0 0.933526 0 1.09249C0 1.23699 0.0655737 1.39595 0.196722 1.51156L4.52459 5.32659C4.65574 5.4422 4.81967 5.5 5 5.5C5.18033 5.5 5.34426 5.4422 5.47541 5.32659L9.80328 1.51156C10.0656 1.28035 10.0656 0.904624 9.80328 0.67341C9.54098 0.442197 9.11475 0.442197 8.85246 0.67341L5 4.06936L1.14754 0.67341C0.885245 0.442197 0.459017 0.442197 0.196722 0.67341Z" fill="#2D3341"/>
</svg>

<svg width="10" height="6" fill="none" xmlns="http://www.w3.org/2000/svg"><path d="M.197.673a.546.546 0 00-.197.42c0 .144.066.303.197.419l4.328 3.815A.704.704 0 005 5.5c.18 0 .344-.058.475-.173l4.328-3.815a.545.545 0 000-.839.738.738 0 00-.95 0L5 4.07 1.148.673a.738.738 0 00-.951 0z" fill="#2D3341"/></svg>
